X: 59
T: Vesperae in D – Laudate Dominum
C: Georgius Luna
L: 1/8
M: C
N: Derived from pl-sa--155-a-iv-5--005_luna-georgius--vesperae-in-d-laudate-dominum.krn
V: 1
V: 2 clef=tenor
V: 3 clef=treble
V: 4 clef=treble
V: 5 clef=bass
K: D
[V:1] z [I:setbarnb 1]| 
[V:2] z | 
[V:3] A | 
[V:4] A | 
[V:5] z | 
[V:1] z32 | 
[V:2] z32 | 
[V:3] dd2d' dd2d' | 
[V:4] FF2f FF2f | 
[V:5] DCB,A, B,A,G,F, | 
[V:1]  | 
[V:2]  | 
[V:3] ebag f/e/d z A | 
[V:4] Bgfe dfdA | 
[V:5] G,E,A,A,, D,DA,F, | 
[V:1]  | 
[V:2]  | 
[V:3] DD2d DD2d | 
[V:4] FF2F FF2F | 
[V:5] D,C,B,,A,, B,,A,,G,,F,, | 
[V:1]  | 
[V:2]  | 
[V:3] EBAG F/E/D z/ A/d/f/ | 
[V:4] B,GFE DF/G/ AF | 
[V:5] G,,E,,A,,A,, D,E,F,D, | 
[V:1] z8 | 
[V:2] z16 | 
[V:3] =B2-B/B/e/g/ {/d}c2-c/c/f/a/ | 
[V:4] DB/A/ BG z c/B/ cA | 
[V:5] G,F,G,E, A,G,A,F, | 
[V:1] z4z2z A | 
[V:2]  | 
[V:3] {/e}d2-d/d/g/b/ cdEc | 
[V:4] z d/c/ dB EFEE | 
[V:5] B,A,B,G, A,F,/G,/ A,A, | 
[V:1] d2d2d2d d | 
[V:2] z8 | 
[V:3] d2z2z4 | 
[V:4] F2z2z4 | 
[V:5] DCB,A, B,A,G,F, | 
[V:1] ef ed e/d/ c z f | 
[V:2] z4z2z D | 
[V:3] z4z2z A | 
[V:4] z4z2z A | 
[V:5] G,E,A,A,, D,E,/F,/ G,/A,/B,/C/ | 
[V:1] f2f2f2f2 | 
[V:2] D2D2D2D2 | 
[V:3] dd2d' dd2d' | 
[V:4] FF2F FF2f | 
[V:5] DCB,A, B,A,G,F, | 
[V:1] e2e2f/ f/ f d d/ d/ | 
[V:2] B,2C2D/ D/ D A, A,/ A,/ | 
[V:3] ebag f/e/d d//D//E//F//G//A//B//c// | 
[V:4] Bgfe d/c/d A/A/A/A/ | 
[V:5] G,E,A,A,, D,E,F,E, | 
[V:1] d d d =c B e/ e/ e e | 
[V:2] A, A, A, A, G, B,/ B,/ B, B, | 
[V:3] d/e/f/g/ a=c {/c}B2e//E//F//^G//A//B//^c//d// | 
[V:4] A/A/A/A/ A//A//A//A// A//A//A//A// D/D/D/D/ B/B/B/B/ | 
[V:5] D,E,F,D, G,G,,^G,F, | 
[V:1] e e e =d/ d/ c cf2 | 
[V:2] B, B, B, B, A, A,A,2 | 
[V:3] e/f/^g/a/ b=d c/A/c/e< f^g//a// | 
[V:4] B/B/B/B/ B/B/B/B/ AcAf | 
[V:5] E,F,^G,E, A,A,,D,D, | 
[V:1] ^g f/ f/ e dc2f/d/ B/A/ | 
[V:2] B, D/ D/ C B,A,2F, F, | 
[V:3] ^g>f e>dc2(3f/e/d/ (3c/B/A/ | 
[V:4] B>d c>B AeFF | 
[V:5] E,E,^G,,G,, A,,C,D,D, | 
[V:1] G A!trill!B2A2z2 | 
[V:2] B, C^G,2A,2z2 | 
[V:3] ^GAEGA2z/ E/A/c/ | 
[V:4] B,CB,2CC/D/ EC | 
[V:5] D,C,/D,/ E,E,, A,,A,,/B,,/ C,A,, | 
[V:1] z16 | 
[V:2] z16 | 
[V:3] {/=G}F2-F/F/B/d/ {/A}^G2-G/G/c/e/ | 
[V:4] A,2>F2B,3G | 
[V:5] D,C,D,B,, E,D,E,C, | 
[V:1]  | 
[V:2]  | 
[V:3] {/B}A2-A/A/d/f/ ^GAEG | 
[V:4] C2>A2 B,CCB, | 
[V:5] F,E,F,D, E,C,/D,/ E,E, | 
[V:1] c2c cc2c2 | 
[V:2] A,2A, A,A,2A,2 | 
[V:3] AA2a AA2a | 
[V:4] CC2c CC2c | 
[V:5] A,^G,F,E, F,E,D,C, | 
[V:1] B2B B c/ c/ c c c | 
[V:2] F,2^G, G, A,/ A,/ A, A, A, | 
[V:3] Bfed c/B/A A/c/e/a/ | 
[V:4] FdcB A/^G/A ec | 
[V:5] D,B,, E,E,,A,,2C,A,, | 
[V:1] B2B2c c e e | 
[V:2] F,2^G, G, A, A, C C | 
[V:3] Bfed c/B/A A/c/e/a/ | 
[V:4] FdcB A/^G/A E/A/ c/f/ | 
[V:5] D,B,,E,E,,A,,2C,A,, | 
[V:1] g2g2g g g g | 
[V:2] C2C2C C C C | 
[V:3] g2g2g/f/e/d/ c/B/A/=G/ | 
[V:4] e2e2e/d/c/B/ A/=G/F/E/ | 
[V:5] A,,A,/^G,/ A,A,, A,,A,,A,,A,, | 
[V:1] f2z d {/c}B2z e | 
[V:2] D2z A,D,2z B, | 
[V:3] {/G}F2z/ A/d/f/ {/=c}B2-B/B/e/g/ | 
[V:4] D2A2D3B | 
[V:5] D,E,F,D, G,F,G,E, | 
[V:1] {/d} c c z f/ f/ d/ d/ d z g/ g/ | 
[V:2] E, E, z C/ C/ F,/ F,/ F, z D/ D/ | 
[V:3] {/d}^c2c/c/f/a/ {/e}d2d/d/g/b/ | 
[V:4] E2>c2F3d | 
[V:5] A,G,A,F, B,A,B,G, | 
[V:1] e fe2f2z d | 
[V:2] C DC2D2z A, | 
[V:3] cdEcd2z/ A/d/f/ | 
[V:4] EFEE FF/G/ AF | 
[V:5] A,F,/G,/ A,A,, D,E,F,D, | 
[V:1] {/c}B2z e {/d}c2z f | 
[V:2] D,2z B,E,2z C | 
[V:3] {/=c}B2-B/B/e/g/ {/d}^c2c/c/f/a/ | 
[V:4] D2>B2E3c | 
[V:5] G,F,G,E, A,G,A,F, | 
[V:1] {/e}d2z g efe2 | 
[V:2] F,2z DC DC2 | 
[V:3] {/e}d2d/d/g/b/ cdEc | 
[V:4] F> d E> d EA/F/ EE | 
[V:5] B,A,B,G, A,F,/G,/ A,A,, | 
[V:1] f2e2f2z2 |]  
[V:2] D2C2D2z2 |]  
[V:3] d2c'2d'2z2 |]  
[V:4] D2e2f2z2 |]  
[V:5] D,2A,2D,2z2 |]  

